X:1
T:Queer Fella's Shot-ese
R:schot 32 hp
S:Charlie Batchelor - NSW
Z:P J Headford
M:4/4
L:1/8
Q:1/4=120
K:G
(3ABc|d2d>e d>Bc>A|G>DG>B d2g>f|e>fg>e a>ge>c|A2A2 A2(3ABc|
d2d>e d>Bc>A|G>DG>B d2g>f|e>fg>e d>B(3cBA|G2G2 G2z2||
g2g2 g2b>a|g>f(3gfe d4|B2B>f e>dc>B|c>BA>G A2z2|
g2g2 g2b>a|g>f(3gfe d2g>f|e>f(3gfe d>B(3cBA|G6|]
